X:1
T:Золушка
T:Золушка
T:Переложение для фортепиано А. Вагнер
T:Алексей Архиповский
C:Алексей Архиповский
%%score { 1 | ( 2 3 ) }
L:1/8
Q:1/4=140
M:4/4
K:G
V:1 treble nm="Piano" snm="Pno."
V:2 treble 
V:3 treble 
V:1
!mf! z2 z2!>(! (ef!>!gf!>)! |!p! g8) | z2 z2 (fg!>!ag | a8) | z2 z2 (AB!pp!cB | c6) z!<(! .E | %6
 .c.E.F.E .f.E.F.E!<)! |!mp! .c.E.F.E .f.E.F.E |!>(! .c.E.F.E .f.E.F.E!>)! |!pp!!<(! z2 (ef gfeB) | %10
 z2 (e'f' g'f'e'b)!<)! |!mp! z2 (fg agfc) | z2 (f'g' a'g'f'c') | z2 (AB cBAf) | z2 (Bc ^defg) | %15
 z2 (ge Bg'f'g') | z2 (ge efgc'-) | c'3 (e c' e'2) f'- | f'4 z b2 b'- | b'4 z b'2 g'- | %20
 g'4 z g'f'e'- | e'4 z g'f'e'- | e'6 e'2 |!>(! f'8- | f'8!>)! |!pp!!<(! z2 (ef gfeB) | %26
 z2 (e'f' g'f'e'b)!<)! |!mf! z2 (fg agfc) | z2 (f'g' a'g'f'c') |!<(! z2 (fg a) z z2!<)! | %30
!ff! z3 (e fgac' |!>(! d'8) | (=f'3 e'3 d'2)!>)! |!p! c''4 z e'2 f'- | f'4!<(! z b2 b'-!<)! | %35
!mp! b'4 z!>(! b'2 g'-!>)! |!p! g'4 z g'f'e'- | e'4 z g'f'e'- | e'6 (e'2 |!>(! e'4 ^d'4!>)! | %40
!pp! e'6)!<(! (ef | g6)!<)!!mp! g'2 | f'6 (de | f6) f'2 | e'6!<(! (cd!<)! |!mf! e6)!<(! (e'f'!<)! | %46
!f! g'4)!>(! e'4 | e'4!>)! ^d'4 |!p! e'8 |!<(! (bagf edcB!<)! |!mp! c8) |!p! (a'g'f'e' ^d'e'f'c' | %52
 b8) |!<(! (bagf edcB!<)! |!mf!!>(! c8)!>)! |!p! (e'4 ^d'4 |!<(! e'8)!<)! |!mp! z8 | %58
{/bc'} b2 g z z4 | z8 |!<(! .^d.e.f z z4!<)! |!mf! z8 |{/bc'} b2 f z z4 | z8 | .e.f.g z z4 | %65
!<(! z8!<)! |!f!{/bc'} b2 g z z4 | z8 | .a.b.c' z z4 |!<(! z8!<)! | %70
!ff!{/c'b} c'2 .a z{/ag} a2 .f z |{/f=f} ^f2 .^d z{/d=d} ^d2 .c z/ z/ | (EFAc efac') |!>(! z8 | %74
 z8!>)! |!mf! .e.f.g z z4 | z4 .e.f.g z | .f2 z2 z4 | z8 | .^d.e.f z z4 |!>(! z4 .^d.e.f z!>)! | %81
!mp! .e2 z2 z4 | z8 |!<(! .e.f.g z z4 | z4 .e.f.g!<)!c'- |!f! c'!>(! z z2 z4 | z8!>)! | %87
!mp! .g.f.e z z4 | .g.f.e z z4 |!<(! .a z z2 z4 | z8!<)! |!mf! [Aa]2!<(! z2 z4 | z8!<)! | %93
!f!!<(! [Aa]8!<)! |!ff! z4 (efg)[GB]- | [GB]8 | z4 (efg)[EA]- | [EA]8 | z4 (efg)[Ac]- | %99
!>(! [Ac]4 (ABc)[FAf]- | [FAf]4 (ABc)[Gg]-!>)! |!f! [Gg]8 | z4!<(! (efg)[Bb]-!<)! |!ff! [Bb]8 | %104
 z4 (efg)[cc']- | [cc']8 | z8 | [aa']8 | [Ac]2 z2 z4 | [aa']8 | [Ac]4 z4 | [aa']4 [Ac]4 | %112
 [aa']4 [Ac]4 | [aa']4 [Ac]4 |!>(! FAc^d fac'^d' | ([CF]Ac^d fac'^d'!>)! |!p! b'6) (a'g' | %117
 g'6) (f'e' | c''6) e'2 | f'6 e'2 | b'6 (a'g' | g'6) (f'e' | e'6) e'2 | f'6 (ef | g3) g3 g'2 | %125
 f'6 (fg | a3) a3 a'2 | g'6 (ef | g3) g3 (e'f' | g'6) (e'f' | g'6) g'2 | f'6 f'2 | b'6 b'2 | %133
 b'3 a'3 g'2 | g'6 g'2 | f'6 a'2 | b'3 b'3 b'2 | c''3 b'3 a'2 | g'6 g'2 | f'6 (ef | g3) g3 g'2 | %141
 f'6 (de | f3) f3 f'2 |!<(! e'6 (cd | e6) (c'd'!<)! |!f! e'3) c'3 (ef | g3) e3 (e'f' | %147
!<(! g'3) e'3 (ef | g3) e3 (e'f'!<)! |!ff! g'3) e'3 (ef |!>(! g2) (e'f' g'2) (ef | %151
 g2) (e'f' g'2) (ef | g2-) [eg]2 g'2- [e'g']2 | g2- [eg]2 g'2- [e'g']2 | %154
 g2- [eg]2 g'2- [e'g']2!>)! |!p! b'6 (a'g' | g'6) (f'e' | c''6) e'2 | f'6 b2 | b'6 (a'g' | %160
 g'6) (f'e' | e'6) e'2 | f'6 (ef | g3) g3 g2 | f'6 (de | f3) f3 f'2 | e'6 (cd | e6) (e'f' | %168
 g'3) e'3 ec | (e'4 ^d'4 | e'6) (e'2 | e'4 ^d'4 | e'6) e'2 | e'8 | z8 |!>(! ^d'8 | z8!>)! | %177
!pp!!<(! z2 (ef gfeB) | z2 (e'f' g'f'e'b)!<)! |!mp! z2 (fg agfc) | z2 (f'g' a'g'f'c') | %181
 z2 (AB cBAf) | z2 (Bc ^defg) | z2 (ge bg'f'g') | z2 (ge) (efg)c'- | c'3 z c' e'2 f'- | %186
 f'4 z b2 b'- | b'4 z b'2 g'- | g'4 z g'f'e'- | e'4 z g'f'e'- | e'6 e'2 | e'4 ^d'4 | e'6 e'2 | %193
 e'4 ^d'4 | e'6 e'2 |!>(! e'8- | e'8 | ^d'8- | d'8 | e'8- | e'8!>)! |!ppp! z8 | z8 |] %203
V:2
 z2!ped! E2- E4- | E8 | z2!ped-up!!ped! E2- E4- | E8 | z2!ped-up!!ped! E2- E4- | E8!ped-up! | z8 | %7
 z8 | z8 |!ped! E2- E6!ped-up! |!ped! E2- E6!ped-up! |!ped! E2- E6!ped-up! |!ped! E2- E6!ped-up! | %13
!ped! E2- E6!ped-up! |!ped! F2- F6!ped-up! |!ped! E2- E6!ped-up! |!ped! E2- E6!ped-up! | %17
!ped! E2- E6!ped-up! |!ped! F2- F6!ped-up! |!ped! E2- E6!ped-up! |!ped! E2- E6!ped-up! | %21
!ped! E2- E6!ped-up! |!ped! (E^c^Ag e c2) E!ped-up! |!ped! (B^dfb ^d'bf'b | b'8)!ped-up! | %25
!ped! E2- E6!ped-up! |!ped! E2- E6!ped-up! |!ped! E2- E6!ped-up! |!ped! E2- E6!ped-up! | %29
!ped! E2- E6!ped-up! |!ped! z F G2 z4!ped-up! |!ped! z (E^Gd e^gd'e)!ped-up! | %32
!ped! z (B^G) z (BG) z e!ped-up! |!ped! z (cAc e2 a2)!ped-up! |!ped! (Ac^df a2 d2)!ped-up! | %35
!ped! (EGBe g2 B2)!ped-up! |!ped! (EGce g4)!ped-up! |!ped! (EAce a4)!ped-up! | %38
!ped! (E^cAg e c2) z!ped-up! |!ped! z (Ae c2 A^dB)!ped-up! |!ped! z (EGB e4)!ped-up! | %41
!ped! z (Ecg e c'2 g)!ped-up! |!ped! z (cdf c' d'3)!ped-up! |!ped! z (Bdf b d'2 f)!ped-up! | %44
!ped! z (EGc d e3)!ped-up! |!ped! z (EAc e a3)!ped-up! |!ped! z (^c^Ac) z (Aec)!ped-up! | %47
!ped! z (Aec) z (A^dB)!ped-up! |!ped! z (EGB e2) z2!ped-up! |!ped! z8!ped-up! | %50
!ped! z (EAc eac'f)!ped-up! |!ped! z8!ped-up! |!ped! z (EGB egbG)!ped-up! |!ped! z8!ped-up! | %54
!ped! z (EAc eac'e)!ped-up! |!ped! z (Aec) z (A^dB)!ped-up! | z (EFE) .B.E.F.E | %57
 .e.E.F.E .B.E.F.E | z .E.F.E .B.E.F.E | .e.E.F.E .B.E.F.E | .^D.F.A.F .c.F.A.F | %61
 .f.F.A.F .c.F.A.F | z .F.A.F .c.F.A.F | .f.F.A.F .c.F.A.F | .B,.E.G.E .B.E.G.E | %65
 .e.E.G.E .B.E.G.E | z .E.G.E .B.E.G.E | .e.E.G.E .B.E.G.E | .A,.F.A.F .c.F.A.F | %69
 .f.F.A.F .c.F.A.F | !arpeggio![Acf]4 !arpeggio![FAc]4 | !arpeggio![^DFc]4 !arpeggio![CDF]4 | %72
!ped! F,2- [F,A,]2- [F,A,C]2- [F,A,CE]2!ped-up! | .[GBe].E.G.E .B.E.G.E | .B.E.G.E .B.E.G.E | %75
 .E,.E.G.E .B.E.G.E | .e.E.G.E .B,.E.G.E | .F,.E.F.E .c.E.F.E | .f.E.F.E .c.E.F.E | %79
 .^D,.F.A.F .c.F.A.F | .f.F.A.F .C.F.A.F | .E,.E.G.E .B.E.G.E | .e.E.G.E .B.E.G.E | %83
 .E,.E.G.E .B.E.G.E | .e.E.G.E .B,.E.G.E | .F,.E.F.E .c.E.F.E | .f.E.F.E .c.E.F.E | %87
 .E,.E.A.E .c.E.A.E | .G,.E.G.E .B.E.G.E | .A,.E.F.E .A.E.F.E | .c.E.F.E .A.E.F.E | %91
 .A,.E.F.E .A.E.F.E | .c.E.F.E .A.E.F.E | .A,EFE AEFE | cEFE z4 |!ped! BEGE BEGE | %96
 eEGE!ped-up! z4 |!ped! cEAE cEAE | fEAE!ped-up! z4 |!ped! cFAF!ped-up! z4 |!ped! cFAF!ped-up! z4 | %101
!ped! z EeE BEGE | eEGE!ped-up! z4 |!ped! z EGE BEGE!ped-up! | eEGE z4 |!ped! z EFE cEFE!ped-up! | %106
 fEFE cEFE |!ped! z EFE!ped-up! cEFE |!ped! z EFE!ped-up! cEFE |!ped! z EFE!ped-up! cEFE | %110
!ped! z EFE!ped-up! cEFE |!ped! z EFE z EFE!ped-up! |!ped! z EFE z EFE!ped-up! | %113
!ped! z EFE z EFE!ped-up! |!ped! F,2- [F,A,]2- [F,A,C]2- [F,A,CE]2!ped-up! |!ped! z8!ped-up! | %116
!ped! z (EGB e g2) z!ped-up! |!ped! z (EGc e g2) z!ped-up! |!ped! z (EAc e a2) e!ped-up! | %119
!ped! z (AB^d f a2) f!ped-up! |!ped! z (EGB e g2) z!ped-up! |!ped! z (EGc e g2) z!ped-up! | %122
!ped! z (EAc e a2) e!ped-up! |!ped! z (AB^d f a2) z!ped-up! |!ped! z (Ec) z (ec') z e!ped-up! | %125
!ped! z (cdf c' d'2) z!ped-up! |!ped! z (B^d) z (b^d') z b!ped-up! |!ped! z (Beg b e'2) z!ped-up! | %128
!ped! z (Ec) z (ec') z z!ped-up! |!ped! z (E^cg e ^c'2) z!ped-up! | %130
!ped! z (c^dg c' ^d'2) c'!ped-up! |!ped! z (cdf c' d'2) c'!ped-up! | %132
!ped! z (dgb d' g'2) d'!ped-up! |!ped! z (g e2) (e ^c2) f!ped-up! | %134
!ped! z (c^dg c' ^d'2) c'!ped-up! |!ped! z (cdf c' d'2) c'!ped-up! | %136
!ped! z (d g2) (b g2) b!ped-up! |!ped! z (e g2) (g e2) G!ped-up! |!ped! z (Beg b e'2) b!ped-up! | %139
!ped! z (B^df b ^d'2) z!ped-up! |!ped! z (E c2) (e c'2) c!ped-up! |!ped! z (cdf c' d'2) z!ped-up! | %142
!ped! z (B d2) (b d'2) d'!ped-up! |!ped! z (EGc e g2) z!ped-up! |!ped! z (EAc e a2) z!ped-up! | %145
!ped! z E- [EA]2 A- [EA]2 z!ped-up! |!ped! z E- [E^A]2 ^c- [Ac]2 z!ped-up! | %147
!ped! z ^c- [^Ac]2 c- [Ac]2 z!ped-up! |!ped! z E- [EG]2 G- [EG]2 z!ped-up! | %149
!ped! z c- [Ac]2 A- [Ac]2 z!ped-up! |!ped! c- [ce]3 E- [Ec]3!ped-up! | %151
!ped! c- [ce]3 E- [Ec]3!ped-up! |!ped! [CEG]- [CEGc]2 c2 c2 c!ped-up! | %153
!ped! [EG]- [EGc]2 c2 c2 c!ped-up! |!ped! G- [Gc]2 c2 c2 c!ped-up! |!ped! z (EGB e g2) z!ped-up! | %156
!ped! z (EGc e g2) z!ped-up! |!ped! z (EAc e a2) e!ped-up! |!ped! z (FA^d f a2) f!ped-up! | %159
!ped! z (EGB e g2) z!ped-up! |!ped! z (EGc e g2) z!ped-up! |!ped! z (EAc e a2) e!ped-up! | %162
!ped! z (B^df b ^d'2) z!ped-up! |!ped! z (E c2) (e c'2) c!ped-up! |!ped! z (cdf c' d'2) z!ped-up! | %165
!ped! z (B d2) (b d'2) d'!ped-up! |!ped! z (EGc e g2) z!ped-up! |!ped! z (EAc e a2) z!ped-up! | %168
!ped! z (^c ^A2) (c A2) z!ped-up! |!ped! z (Aec) z (c^dB)!ped-up! |!ped! z (EGB e g2) E!ped-up! | %171
!ped! z (Aec) z (c^dB)!ped-up! |!ped! z (EGB e g2) E!ped-up! |!ped! z (AcA) (eAcA)!ped-up! | %174
!ped! (!>!eAcA) (eAcA)!ped-up! |!ped! z (ABA) (^dABA)!ped-up! |!ped! (!>!^dABA) (dABA)!ped-up! | %177
!ped! E2- E6!ped-up! |!ped! E2- E6!ped-up! |!ped! E2- E6!ped-up! |!ped! E2- E6!ped-up! | %181
!ped! E2- E6!ped-up! |!ped! E2- E6!ped-up! |!ped! E2- E6!ped-up! |!ped! E2- E6!ped-up! | %185
!ped! E2- E6!ped-up! |!ped! F2- F6!ped-up! |!ped! E2- E6!ped-up! |!ped! E2- E6!ped-up! | %189
!ped! E2- E6!ped-up! |!ped! (E^cAg e c2 A)!ped-up! |!ped! z (Aec) z (A^dB)!ped-up! | %192
!ped! z (EGB e g2 e)!ped-up! |!ped! z (Aec) z (A^dB)!ped-up! |!ped! z (EGB e g2 e)!ped-up! | %195
!ped! z (AcA eAcA | eAcA eAcA)!ped-up! |!ped! z (ABA ^dABA | ^dABA dABA)!ped-up! | %199
!ped! z (EGE) BEGE!ped-up! | .e.E.G.E .B.E.G.E | .e.E.G.E .B.E.G.E | e8 |] %203
V:3
 z2 z B- B4- | B8 | z2 z c- c4- | c8 | z2 z F- F4- | F8 | x8 | x8 | x8 | z B- B6 | z B- B6 | %11
 z c- c6 | z c- c6 | z F- F6 | z A- A6 | z B- B6 | z B- B6 | z (c A4 e2) | z (AB^d f2 B2) | %19
 z (GBe g2 B2) | z (Gce g) z z2 | z (Ace a) z z2 | x8 | x8 | x8 | z B- B6 | z B- B6 | z c- c6 | %28
 z c- c6 | z c- c3 (EFG | A8) | ^G,8 | B,3 C3 D2 | E8 | x8 | x8 | x8 | x8 | x8 | x8 | x8 | x8 | %42
 x8 | x8 | x8 | x8 | x8 | x8 | x8 | x8 | x8 | x8 | x8 | x8 | x8 | x8 | x8 | x8 | x8 | x8 | x8 | %61
 x8 | x8 | x8 | x8 | x8 | x8 | x8 | x8 | x8 | x8 | x8 | x8 | x8 | x8 | x8 | x8 | x8 | x8 | x8 | %80
 x8 | x8 | x8 | x8 | x8 | x8 | x8 | x8 | x8 | x8 | x8 | x8 | x8 | x8 | x8 | x8 | x8 | x8 | x8 | %99
 x8 | x8 | x8 | x8 | x8 | x8 | x8 | x8 | x8 | x8 | x8 | x8 | x8 | x8 | x8 | x8 | x8 | x8 | x8 | %118
 x8 | x8 | x8 | x8 | x8 | x8 | x8 | x8 | x8 | x8 | x8 | x8 | x8 | x8 | x8 | x8 | x8 | x8 | x8 | %137
 x8 | x8 | x8 | x8 | x8 | x8 | x8 | x8 | x8 | x8 | x8 | x8 | x8 | x8 | x8 | x8 | x8 | x8 | x8 | %156
 x8 | x8 | x8 | x8 | x8 | x8 | x8 | x8 | x8 | x8 | x8 | x8 | x8 | x8 | x8 | x8 | x8 | x8 | x8 | %175
 x8 | x8 | z B- B6 | z B- B6 | z c- c6 | z c- c6 | z F- F6 | z A- A6 | z B- B6 | z B- B6 | %185
 z (FA c3 e2) | z (AB^d f2 d2) | z (GBe g2 e2) | z (Gce g3) z | z (Ace a3) z | x8 | E4 ^D4 | E,8 | %193
 E4 ^D4 | E,8 | E8 | x8 | ^D8 | x8 | E,8 | x8 | x8 | x8 |] %203

